dist/svgs/unicons/line/table.svg

<svg xmlns="http://www.w3.org/2000/svg" viewBox="0 0 24 24"><path d="M21 2H3a1 1 0 00-1 1v18a1 1 0 001 1h18a1 1 0 001-1V3a1 1 0 00-1-1zM8 20H4v-4h4zm0-6H4v-4h4zm0-6H4V4h4zm6 12h-4v-4h4zm0-6h-4v-4h4zm0-6h-4V4h4zm6 12h-4v-4h4zm0-6h-4v-4h4zm0-6h-4V4h4z"/></svg>

<svg xmlns="http://www.w3.org/2000/svg" viewBox="0 0 24 24"><path d="M21,2H3A1,1,0,0,0,2,3V21a1,1,0,0,0,1,1H21a1,1,0,0,0,1-1V3A1,1,0,0,0,21,2ZM8,20H4V16H8Zm0-6H4V10H8ZM8,8H4V4H8Zm6,12H10V16h4Zm0-6H10V10h4Zm0-6H10V4h4Zm6,12H16V16h4Zm0-6H16V10h4Zm0-6H16V4h4Z"/></svg>
